Skins/royal-surge.surge-skin/assets/bmp00148.svg

<?xml version="1.0" encoding="UTF-8" standalone="no"?>
<svg
   xmlns:dc="http://purl.org/dc/elements/1.1/"
   xmlns:cc="http://creativecommons.org/ns#"
   xmlns:rdf="http://www.w3.org/1999/02/22-rdf-syntax-ns#"
   xmlns:svg="http://www.w3.org/2000/svg"
   xmlns="http://www.w3.org/2000/svg"
   xmlns:xlink="http://www.w3.org/1999/xlink"
   xmlns:sodipodi="http://sodipodi.sourceforge.net/DTD/sodipodi-0.dtd"
   xmlns:inkscape="http://www.inkscape.org/namespaces/inkscape"
   width="34"
   height="11"
   viewBox="0 0 34 11"
   version="1.1"
   id="svg16478"
   sodipodi:docname="bmp00148.svg"
   inkscape:version="1.0.1 (3bc2e813f5, 2020-09-07)">
  <metadata
     id="metadata16482">
    <rdf:RDF>
      <cc:Work
         rdf:about="">
        <dc:format>image/svg+xml</dc:format>
        <dc:type
           rdf:resource="http://purl.org/dc/dcmitype/StillImage" />
        <dc:title />
      </cc:Work>
    </rdf:RDF>
  </metadata>
  <sodipodi:namedview
     pagecolor="#464646"
     bordercolor="#666666"
     borderopacity="1"
     objecttolerance="10"
     gridtolerance="10"
     guidetolerance="10"
     inkscape:pageopacity="0"
     inkscape:pageshadow="2"
     inkscape:window-width="3753"
     inkscape:window-height="2137"
     id="namedview16480"
     showgrid="false"
     inkscape:zoom="87.76443"
     inkscape:cx="16.821569"
     inkscape:cy="3.2189189"
     inkscape:window-x="-8"
     inkscape:window-y="-8"
     inkscape:window-maximized="1"
     inkscape:current-layer="svg16478"
     inkscape:document-rotation="0" />
  <defs
     id="defs16458">
    <linearGradient
       id="a"
       x1="0.5"
       x2="0.5"
       y2="1"
       gradientUnits="objectBoundingBox">
      <stop
         offset="0"
         stop-color="#787477"
         id="stop16453" />
      <stop
         offset="1"
         stop-color="#716b6c"
         id="stop16455" />
    </linearGradient>
    <linearGradient
       inkscape:collect="always"
       xlink:href="#linearGradient10622"
       id="linearGradient10616"
       x1="8.953125"
       y1="0.78125"
       x2="8.921875"
       y2="9.8125"
       gradientUnits="userSpaceOnUse"
       gradientTransform="translate(0,3.15e-4)" />
    <linearGradient
       x1="0.5"
       y1="0"
       x2="0.5"
       y2="1"
       id="linearGradient10622">
      <stop
         offset="0"
         stop-color="#787477"
         id="stop10618"
         style="stop-color:#737172;stop-opacity:1" />
      <stop
         offset="1"
         stop-color="#716B6C"
         id="stop10620"
         style="stop-color:#6e686d;stop-opacity:1" />
    </linearGradient>
  </defs>
  <rect
     width="33"
     height="10"
     rx="1"
     fill="#ffffff"
     opacity="0"
     id="rect16470"
     x="0.5"
     y="0.50099999" />
  <path
     id="rect10608"
     style="opacity:1;fill:#0a090a;fill-opacity:1;stroke:none;stroke-width:1.19165;stroke-linecap:butt;stroke-linejoin:miter;stroke-miterlimit:4;stroke-dasharray:none;stroke-opacity:1;paint-order:stroke markers fill"
     d="m 32.382296,10.999843 c -0.855909,0 -30.764592,3.15e-4 -30.764592,3.15e-4 C 0.71384199,11.000168 0,10.289417 0,9.3855554 V 1.631834 C 0,0.727972 0.72765699,3.253094e-4 1.631519,3.15e-4 1.631519,3.15e-4 23.729707,0 32.396111,0 33.228781,0 34,0.66457479 34,1.6318675 v 7.7530253 c 0,0.8875912 -0.761796,1.6149502 -1.617704,1.6149502 z"
     sodipodi:nodetypes="zssssszzz" />
  <path
     id="rect7997"
     style="opacity:1;fill:url(#linearGradient10616);fill-opacity:1;stroke:none;stroke-width:1.11;stroke-linecap:butt;stroke-linejoin:miter;stroke-miterlimit:4;stroke-dasharray:none;stroke-opacity:1;paint-order:stroke markers fill"
     d="m 1.846436,0.414189 h 30.28632 c 0.723812,0 1.424267,0.58207297 1.424267,1.4044043 0,0.7995399 0.01139,6.08837 0.01139,7.309493 0,0.7425723 -0.67791,1.4385867 -1.435661,1.4385867 H 1.846432 c -0.790561,0 -1.427005,-0.6364446 -1.427005,-1.4270052 V 1.841193 c 0,-0.79056 0.636444,-1.427004 1.427005,-1.427004 z"
     sodipodi:nodetypes="ssssssssss" />
  <path
     id="rect10605"
     style="opacity:1;fill:#959197;fill-opacity:1;stroke:none;stroke-width:0.723173;stroke-linecap:butt;stroke-linejoin:miter;stroke-miterlimit:4;stroke-dasharray:none;stroke-opacity:1;paint-order:stroke markers fill"
     d="M 1.6953125,0.42382812 C 1.4118405,0.42400512 0.88650061,0.65816975 0.61914062,1.1210938 0.34716762,1.5919987 0.4140625,1.8971994 0.4140625,1.9433594 c 0,0.053384 0.34677799,-1.02343752 1.265625,-1.02343752 H 32.273438 c 0.918846,0 1.265625,1.07682152 1.265624,1.02343752 0,-0.04616 0.06494,-0.3513607 -0.207031,-0.8222656 -0.26736,-0.46292405 -0.7927,-0.69708868 -1.076172,-0.69726568 -0.570202,-7.8968e-4 -29.8876081,0 -30.5605465,0 z"
     sodipodi:nodetypes="ccsccsscc" />
  <path
     d="M 1.471475,3.04577 V 2.227589 c 0,-0.225935 0.09188,-0.418783 0.275631,-0.578542 0.183754,-0.15976 0.405566,-0.23964 0.665434,-0.23964 h 13.174919 c 0.259829,0 0.481638,0.07988 0.665428,0.23964 0.18379,0.159759 0.275638,0.352607 0.275638,0.578542 v 6.5454534 c 0,0.2259327 -0.09185,0.4187781 -0.275638,0.5785445 -0.18379,0.1597581 -0.405599,0.2396372 -0.665428,0.2396372 H 2.41254 c -0.259868,0 -0.48168,-0.079879 -0.665434,-0.2396372 C 1.563352,9.1918205 1.471475,8.9989751 1.471475,8.7730424 Z"
     id="path31121"
     fill="#ffffff"
     fill-opacity="0"
     fill-rule="evenodd"
     stroke="none"
     style="stroke-width:0.877475" />
  <path
     d="m 8.4,6.9140586 a 1.86,1.86 0 0 0 2.09,1.606 c 1.289,0 2.105,-0.66 2.105,-1.7 0,-0.828 -0.469,-1.281 -1.637,-1.574 l -0.59,-0.156 c -0.777,-0.2 -1.086,-0.453 -1.086,-0.895 0,-0.57 0.5,-0.945 1.246,-0.945 a 1.155,1.155 0 0 1 1.277,0.922 h 0.707 a 1.793,1.793 0 0 0 -1.959,-1.555 c -1.191,0 -1.992,0.648 -1.992,1.605 0,0.8 0.441,1.262 1.461,1.52 l 0.723,0.188 c 0.777,0.2 1.129,0.5 1.129,0.98 0,0.559 -0.559,0.969 -1.316,0.969 -0.8,0 -1.363,-0.375 -1.449,-0.965 z m 6.578,0.957 c -0.488,0 -0.852,-0.25 -0.852,-0.68 0,-0.43 0.281,-0.645 0.922,-0.687 l 1.133,-0.074 v 0.387 a 1.108,1.108 0 0 1 -1.206,1.054 z m -0.125,0.59 a 1.455,1.455 0 0 0 1.3,-0.7 h 0.063 v 0.626 h 0.634 v -2.883 c 0,-0.875 -0.574,-1.4 -1.6,-1.4 -0.9,0 -1.562,0.445 -1.652,1.121 h 0.68 c 0.094,-0.332 0.445,-0.523 0.949,-0.523 0.629,0 0.953,0.285 0.953,0.8 v 0.385 l -1.215,0.074 c -0.98,0.059 -1.535,0.492 -1.535,1.246 a 1.281,1.281 0 0 0 1.42,1.254 z m 6.52,-4.285 h -0.719 l -1.154,3.469 h -0.061 l -1.152,-3.469 h -0.719 l 1.559,4.211 h 0.688 z m 2.422,0.52 a 1.133,1.133 0 0 1 1.129,1.238 H 22.6 a 1.2,1.2 0 0 1 1.195,-1.238 z m 1.105,2.601 a 1.091,1.091 0 0 1 -1.086,0.57 c -0.714,0 -1.175,-0.527 -1.214,-1.359 v -0.031 h 3.031 v -0.258 c 0,-1.309 -0.691,-2.117 -1.828,-2.117 a 1.925,1.925 0 0 0 -1.903,2.185 c 0,1.33 0.735,2.174 1.9,2.174 a 1.683,1.683 0 0 0 1.776,-1.164 z"
     fill="#e4dcd9"
     id="path16472" />
</svg>

<?xml version="1.0" encoding="utf-8"?>
<svg width="34px" height="11px" viewBox="0 0 34 11" version="1.1" xmlns:xlink="http://www.w3.org/1999/xlink" xmlns="http://www.w3.org/2000/svg">
  <defs>
    <linearGradient x1="8.953125" y1="0.78125" x2="8.921875" y2="9.8125" id="gradient_1">
      <stop offset="0" stop-color="#737172" />
      <stop offset="1" stop-color="#6E686D" />
    </linearGradient>
    <path d="M0 0L34 0L34 11L0 11L0 0Z" id="path_1" />
    <rect width="34" height="11" id="artboard_1" />
    <clipPath id="clip_1">
      <use xlink:href="#artboard_1" clip-rule="evenodd" />
    </clipPath>
    <clipPath id="mask_1">
      <use xlink:href="#path_1" />
    </clipPath>
  </defs>
  <g id="bmp00148" clip-path="url(#clip_1)">
    <path d="M0 0L34 0L34 11L0 11L0 0Z" id="Background" fill="none" fill-rule="evenodd" stroke="none" />
    <g clip-path="url(#mask_1)">
      <path d="M0.5 2.501L0.5 1.501C0.5 1.22486 0.597631 0.989155 0.792893 0.793893C0.988155 0.598631 1.22386 0.500999 1.5 0.500999L32.5 0.500999C32.7761 0.500999 33.0118 0.598631 33.2071 0.793893C33.4024 0.989155 33.5 1.22486 33.5 1.501L33.5 9.501C33.5 9.77714 33.4024 10.0128 33.2071 10.2081C33.0118 10.4034 32.7761 10.501 32.5 10.501L1.5 10.501C1.22386 10.501 0.988155 10.4034 0.792893 10.2081C0.597631 10.0128 0.5 9.77714 0.5 9.501L0.5 2.501Z" id="rect16470" fill="#FFFFFF" fill-opacity="0" fill-rule="evenodd" stroke="none" />
      <path d="M32.3823 10.9998C31.5264 10.9998 1.61771 11.0002 1.61771 11.0002C0.713842 11.0002 0 10.2894 0 9.38556L0 1.63183C0 0.727972 0.727657 0.000325309 1.63152 0.000315C1.63152 0.000315 23.7297 0 32.3961 0C33.2288 0 34 0.664575 34 1.63187L34 9.38489C34 10.2725 33.2382 10.9998 32.3823 10.9998L32.3823 10.9998Z" id="rect10608" fill="#0A090A" fill-rule="evenodd" stroke="none" />
      <path d="M1.84644 0.414192L32.1328 0.414192C32.8566 0.414192 33.557 0.996265 33.557 1.8186C33.557 2.61814 33.5684 7.90697 33.5684 9.12809C33.5684 9.87066 32.8905 10.5667 32.1328 10.5667L1.84643 10.5667C1.05587 10.5667 0.419427 9.93023 0.419427 9.13967L0.419427 1.8412C0.419427 1.05064 1.05587 0.414192 1.84643 0.414192L1.84644 0.414192Z" id="rect7997" fill="url(#gradient_1)" fill-rule="evenodd" stroke="none" />
      <path d="M1.69531 0.423828C1.41184 0.424005 0.886501 0.65817 0.619141 1.12109C0.347168 1.592 0.414063 1.8972 0.414063 1.94336C0.414063 1.99674 0.76084 0.919922 1.67969 0.919922L32.2734 0.919922C33.1923 0.919922 33.5391 1.99674 33.5391 1.94336C33.5391 1.8972 33.604 1.592 33.332 1.12109C33.0647 0.65817 32.5393 0.424005 32.2559 0.423828C31.6857 0.423038 2.36825 0.423828 1.69531 0.423828L1.69531 0.423828Z" id="rect10605" fill="#959197" fill-rule="evenodd" stroke="none" />
      <path d="M1.47148 3.04577L1.47148 2.22759C1.47148 2.00166 1.56335 1.80881 1.74711 1.64905C1.93086 1.48929 2.15267 1.40941 2.41254 1.40941L15.5875 1.40941C15.8473 1.40941 16.0691 1.48929 16.2529 1.64905C16.4367 1.80881 16.5285 2.00166 16.5285 2.22759L16.5285 8.77304C16.5285 8.99898 16.4367 9.19182 16.2529 9.35159C16.0691 9.51135 15.8473 9.59123 15.5875 9.59123L2.41254 9.59123C2.15267 9.59123 1.93086 9.51135 1.74711 9.35159C1.56335 9.19182 1.47148 8.99898 1.47148 8.77304L1.47148 3.04577Z" id="path31121" fill="#FFFFFF" fill-opacity="0" fill-rule="evenodd" stroke="none" />
      <path d="M8.4 6.91405C8.46322 7.40461 8.71923 7.84978 9.11143 8.15115C9.50362 8.45253 9.9997 8.58528 10.49 8.52005C11.779 8.52005 12.595 7.86005 12.595 6.82006C12.595 5.99205 12.126 5.53905 10.958 5.24606L10.368 5.09006C9.591 4.89006 9.282 4.63706 9.282 4.19506C9.282 3.62506 9.782 3.25006 10.528 3.25006C11.1297 3.17449 11.6874 3.57713 11.805 4.17206L12.512 4.17206C12.388 3.20865 11.5194 2.51918 10.553 2.61706C9.362 2.61706 8.561 3.26506 8.561 4.22206C8.561 5.02206 9.002 5.48406 10.022 5.74206L10.745 5.93006C11.522 6.13006 11.874 6.43006 11.874 6.91006C11.874 7.46906 11.315 7.87906 10.558 7.87906C9.758 7.87906 9.195 7.50406 9.109 6.91406L8.4 6.91405ZM14.978 7.87105C14.49 7.87105 14.126 7.62105 14.126 7.19106C14.126 6.76105 14.407 6.54605 15.048 6.50406L16.181 6.43006L16.181 6.81706C16.1675 7.11923 16.031 7.40273 15.8032 7.60178C15.5755 7.80083 15.2763 7.89811 14.975 7.87106L14.978 7.87105ZM14.853 8.46105C15.3813 8.48125 15.879 8.21325 16.153 7.76106L16.216 7.76105L16.216 8.38706L16.85 8.38706L16.85 5.50406C16.85 4.62906 16.276 4.10406 15.25 4.10406C14.35 4.10406 13.688 4.54906 13.598 5.22506L14.278 5.22506C14.372 4.89306 14.723 4.70206 15.227 4.70206C15.856 4.70206 16.18 4.98706 16.18 5.50206L16.18 5.88706L14.965 5.96106C13.985 6.02006 13.43 6.45306 13.43 7.20706C13.4355 7.5676 13.5926 7.90914 13.8629 8.14782C14.1332 8.38651 14.4916 8.50022 14.85 8.46106L14.853 8.46105ZM21.373 4.17605L20.654 4.17605L19.5 7.64505L19.439 7.64505L18.287 4.17605L17.568 4.17605L19.127 8.38705L19.815 8.38705L21.373 4.17605ZM23.795 4.69606C24.1139 4.69581 24.4181 4.82997 24.633 5.06561C24.8479 5.30124 24.9536 5.61652 24.924 5.93405L22.6 5.93405C22.5897 5.61013 22.7109 5.29583 22.936 5.06265C23.1611 4.82947 23.4709 4.69724 23.795 4.69605L23.795 4.69606ZM24.9 7.29706C24.6892 7.69181 24.2586 7.91778 23.814 7.86705C23.1 7.86706 22.639 7.34006 22.6 6.50806L22.6 6.47706L25.631 6.47706L25.631 6.21906C25.631 4.91006 24.94 4.10206 23.803 4.10206C23.2479 4.10331 22.7203 4.34416 22.3557 4.76277C21.9911 5.18139 21.825 5.73702 21.9 6.28706C21.9 7.61706 22.635 8.46106 23.8 8.46106C24.593 8.54261 25.3344 8.05669 25.576 7.29706L24.9 7.29706Z" id="path16472" fill="#E4DCD9" fill-rule="evenodd" stroke="none" />
    </g>
  </g>
</svg>
